X: 34698
T: Road To Eyries, The
R: hornpipe
M: 4/4
K: Dmajor
|:FE|DA,DE FDFA|dcBd A2 FG|AdAF GFGB|AFGF EA,CE|
DCDE FDFA|dcBd A2 FG|AdAF GECE|(3DED CE D2:|
|:FG|ADFA dFAd|fgfe d2 (3Bcd|eAfA ~g3f|(3efe (3dcB AGFG|
ADFA dcdf|e^def gece|dAFA GECE|(3DED CE D2:|

